!!!OTL: Aliud Organiscino
**kern
*staff1
=--
*clefC1
*k[b-]
1.b-
2b-
2a
2b-
=-
1.cc
2dd
2cc
2b-
=-
2cc
2a
1g
1.b-
2b-
2a
2b-
2cc
1cc
!!linebreak:original
=-
1dd
1.dd
2dd
=-
2cc
2b-
2cc
2a
1g
=-
!LO:TX:Y=-37:t=P
1a
2b-
2b-
2cc
2a
=-
1g
1dd
2b-
2g
=-
1f
0g
=-
!!linebreak:original
1dd
2cc
2dd
1.cc
2b-
2cc
2dd
1cc
=-
!LO:TX:Y=-40:t=P
1a
1g
1b-
=-
2cc
2dd
1.cc
2b-
=-
!LO:TX:Y=-41:t=P
1a
1dd
2ee-
2dd
=-
!LO:TX:Y=-45:t=P
1cc
1dd
=-
!!linebreak:original
1a
2dd
2b-
1a
1b-
=-
!LO:TX:Y=-42:t=P
1cc
2dd
2dd
1cc
=-
1b-
1dd
2dd
2dd
=-
2cc
2b-
2a
2b-
2cc
2a
=-
!LO:TX:Y=118:t=P
0b-
=-
!!linebreak:original
1.dd
2dd
1dd
=-
1.cc
2cc
1cc
=-
1cc
2cc
2g
1b-
1a
1g
=-
!LO:TX:Y=-42:t=P
1.dd
2cc
2b-
2a
=-
1.b-
2cc
1b-
!!pagebreak:original
=-
1a
1g
2b-
2b-
=-
2a
2a
2b-
2b-
2b-
2b-
=-
1b-
1.dd
2cc
=-
1b-
2a
2b-
2b-
2a
1g
=-
!!linebreak:original
2dd
2dd
2cc
2cc
=-
!LO:TX:Y=-44:t=P
1dd
1b-
1a
=-
1.a
2a
1a
=-
!LO:TX:Y=-45:t=P
!LO:TX:Y=118:t=P
1g
1g
0b-
0a
0b-
=-
!!linebreak:original
1.b-
2b-
1b-
=-
!LO:TX:Y=-42:t=P
!LO:TX:Y=-42:t=P
1b-
2dd
2b-
1a
=-
!LO:TX:Y=-43:t=P
1b-
1dd
2cc
2b-
=-
!LO:TX:Y=-43:t=P
!LO:TX:Y=-44:t=P
2cc
2a
1g
1dd
!!linebreak:original
=-
2ee-
2dd
1b-
1cc
=-
2cc
2b-
2cc
2a
1g
=-
!LO:TX:Y=-45:t=P
1.cc
2b-
0a
0g
=-=
*-
!!title: @{OTL}, @{GTL}, ed. @{ENC}
!!!pag:
!!!GTL: Hymnbook C
!!!EFL: 
!!!YEM: Creative Commons CC/BY/NC/SA 4.0
!!!ENC: Marcin Konik
!!!END: 2015-0m-dd
!!!EED: Marcin Konik
!!!EEV: 
!!!ONB: Encoded in vim by Marcin Konik
!!!CharacterEncoding: utf-8
!!!RDF**kern: l=long note in original notation
!!!RDF**kern: i=editorial accidental
!!muse2ps: z14jc180F
!!!COM: Anonim
!!!CDT: [?]
!!!TXO: Polish
!!!ODT: 
!!!GTL: Hymnbook C
!!!ARL: Opactwo św. Wojciecha, Staniątki 
!!!voices:	1
